X:26
T:Falcon's Whistle
M:4/4
L:1/8
K:D
|:e2 A2 ed Bg|f2e4 Bd|e2 A2 dBAG|E2 G6|e2 A2 ed Bg|f2e4 Bd|e2 A2 dBAG|E2 A6:|
|:a2 ea g2 ed|BA G2 E4|e2 A2 dBAG|E2 G6|a2 ea g2 ed|BA G2 E4|e2 A2 dBAG|E2 A6:|

